src/assets/outline/ArrowSquare.svg

<svg width="24" height="24" viewBox="0 0 24 24"  xmlns="http://www.w3.org/2000/svg">
<path d="M12.1401 15.8198C11.7301 15.8198 11.3901 15.4798 11.3901 15.0698V13.1098C11.3901 10.1798 13.7701 7.7998 16.7101 7.7998H18.6701C19.0801 7.7998 19.4201 8.1398 19.4201 8.5498C19.4201 8.9598 19.0801 9.2998 18.6701 9.2998H16.7101C14.6101 9.2998 12.8901 11.0098 12.8901 13.1098V15.0698C12.8901 15.4898 12.5501 15.8198 12.1401 15.8198Z" />
<path d="M12.1401 18.0001C11.7301 18.0001 11.3901 17.6601 11.3901 17.2501V13.1201C11.3901 11.0201 9.68014 9.31006 7.58014 9.31006H5.62012C5.21012 9.31006 4.87012 8.97006 4.87012 8.56006C4.87012 8.15006 5.21012 7.81006 5.62012 7.81006H7.58014C10.5101 7.81006 12.8901 10.1901 12.8901 13.1201V17.2501C12.8901 17.6601 12.5501 18.0001 12.1401 18.0001Z" />
<path d="M7.1398 11.0999C6.9498 11.0999 6.75977 11.0299 6.60977 10.8799L4.80979 9.07994C4.51979 8.78994 4.51979 8.30994 4.80979 8.01994L6.60977 6.21994C6.89977 5.92994 7.37977 5.92994 7.66977 6.21994C7.95977 6.50994 7.95977 6.98994 7.66977 7.27994L6.39981 8.54994L7.66977 9.81995C7.95977 10.1099 7.95977 10.5899 7.66977 10.8799C7.51977 11.0299 7.3298 11.0999 7.1398 11.0999Z" />
<path d="M16.8598 11.0999C16.6698 11.0999 16.4798 11.0299 16.3298 10.8799C16.0398 10.5899 16.0398 10.1099 16.3298 9.81995L17.5998 8.54994L16.3298 7.27994C16.0398 6.98994 16.0398 6.50994 16.3298 6.21994C16.6198 5.92994 17.0998 5.92994 17.3898 6.21994L19.1898 8.01994C19.4798 8.30994 19.4798 8.78994 19.1898 9.07994L17.3898 10.8799C17.2498 11.0299 17.0498 11.0999 16.8598 11.0999Z" />
<path d="M15 22.75H9C3.57 22.75 1.25 20.43 1.25 15V9C1.25 3.57 3.57 1.25 9 1.25H15C20.43 1.25 22.75 3.57 22.75 9V15C22.75 20.43 20.43 22.75 15 22.75ZM9 2.75C4.39 2.75 2.75 4.39 2.75 9V15C2.75 19.61 4.39 21.25 9 21.25H15C19.61 21.25 21.25 19.61 21.25 15V9C21.25 4.39 19.61 2.75 15 2.75H9Z" />
</svg>

<?xml version="1.0" encoding="UTF-8"?>
<svg width="24" height="24" viewBox="0 0 24 24" xmlns="http://www.w3.org/2000/svg">
 <path d="m12.14 15.82c-0.41 0-0.75-0.34-0.75-0.75v-1.96c0-2.93 2.38-5.31 5.32-5.31h1.96c0.41 0 0.75 0.34 0.75 0.75s-0.34 0.75-0.75 0.75h-1.96c-2.1 0-3.82 1.71-3.82 3.81v1.96c0 0.42-0.34 0.75-0.75 0.75z"/>
 <path d="m12.14 18c-0.41 0-0.75-0.34-0.75-0.75v-4.13c0-2.1-1.71-3.81-3.81-3.81h-1.96c-0.41 0-0.75-0.34-0.75-0.75s0.34-0.75 0.75-0.75h1.96c2.93 0 5.31 2.38 5.31 5.31v4.13c0 0.41-0.34 0.75-0.75 0.75z"/>
 <path d="m7.1398 11.1c-0.19 0-0.38003-0.07-0.53003-0.22l-1.8-1.8c-0.29-0.29-0.29-0.77 0-1.06l1.8-1.8c0.29-0.29 0.77-0.29 1.06 0s0.29 0.77 0 1.06l-1.27 1.27 1.27 1.27c0.29 0.28995 0.29 0.76995 0 1.06-0.15 0.15-0.33997 0.22-0.52997 0.22z"/>
 <path d="m16.86 11.1c-0.19 0-0.38-0.07-0.53-0.22-0.29-0.29-0.29-0.77 0-1.06l1.27-1.27-1.27-1.27c-0.29-0.29-0.29-0.77 0-1.06s0.77-0.29 1.06 0l1.8 1.8c0.29 0.29 0.29 0.77 0 1.06l-1.8 1.8c-0.14 0.15-0.34 0.22-0.53 0.22z"/>
 <path d="m15 22.75h-6c-5.43 0-7.75-2.32-7.75-7.75v-6c0-5.43 2.32-7.75 7.75-7.75h6c5.43 0 7.75 2.32 7.75 7.75v6c0 5.43-2.32 7.75-7.75 7.75zm-6-20c-4.61 0-6.25 1.64-6.25 6.25v6c0 4.61 1.64 6.25 6.25 6.25h6c4.61 0 6.25-1.64 6.25-6.25v-6c0-4.61-1.64-6.25-6.25-6.25h-6z"/>
</svg>
